dist/svgs/devui-icons/op/expand.svg

<svg xmlns="http://www.w3.org/2000/svg" viewBox="0 0 16 16"><path d="M1 7h14v2H1V7zm6-3H5l3-3 3 3H9v2H7V4zm0 8v-2h2v2h2l-3 3-3-3h2z"/></svg>

<?xml version="1.0" encoding="UTF-8"?>
<svg width="16px" height="16px" viewBox="0 0 16 16" version="1.1" xmlns="http://www.w3.org/2000/svg" xmlns:xlink="http://www.w3.org/1999/xlink">
    <title>操作/展开</title>
    <desc>Created with Sketch.</desc>
    <g id="操作/展开" stroke="none" stroke-width="1" fill="none" fill-rule="evenodd">
        <g>
            <path d="M1,7 L15,7 L15,9 L1,9 L1,7 Z M7,4 L5,4 L8,1 L11,4 L9,4 L9,6 L7,6 L7,4 Z M7,12 L7,10 L9,10 L9,12 L11,12 L8,15 L5,12 L7,12 Z" id="形状" fill="#293040" fill-rule="nonzero"></path>
        </g>
    </g>
</svg>
